X:4821
T:Old Time Reel
O:england
M:2/4
L:1/16
S:Devil's Box Vol 9 #1
N:As played by Ernie Hodges
K:G
"G"G2g2 d2ed|B2ge dBAF|G2g2 d2ed|BGAG "D7"EGDF|"G"G2ge d2ed|B2ge dBAF|G2
ge dged|"D7"BGAF "G"G3A|G2ge d2ed|B2ge dBAF|G2ge dged|BGAG "D7"EGFA|"G"G
4|:"Em"Be2d e2g|fedf edBA|Be2d e2eg|"B7"fgaf "Em"gab2|Be2d e2eg|fedf edB
A|Be2d e2eg|"D7"fgaf "G"g4:|:"G"Bd2e d3c|BABc dBGA|Bd2e d3c|BAGC "D7"EGD
G|"G"Bd2e d3c|BABc dBGA|Bd2e d2cd|"D7"BGAF "G"G4:|:"Em"Be2d e2g|fedf edB
A|Be2d e2eg|"B7"fgaf "Em"gab2|Be2d e2eg|fedf edBA|Be2d e2eg|"D7"fgaf "G"
g4:|


